src/main/resources/icons/JetgroovyIcons/icons/groovy/gant_sdk.svg

<svg xmlns="http://www.w3.org/2000/svg" width="16" height="16" viewBox="0 0 16 16">
  <g fill="none" fill-rule="evenodd">
    <path fill="#9AA7B0" fill-opacity=".8" d="M1,8.75777452 L1,2.05125 C1.00000265,2.037655 1.00540579,2.02461787 1.05127,2 L4.979,2 C5.61574625,2.0346507 6.22158519,2.28563452 6.69629,2.71143 L7.98462,4 L15,4 L15,7.5 L8.5,7.5 L8.5,13 L7.97253561,13 C7.99068334,12.8358331 8,12.6690045 8,12.5 C8,10.0147186 5.98528137,8 3.5,8 C2.57492668,8 1.71504902,8.27913583 1,8.75777452 Z"/>
    <path fill="#231F20" fill-opacity=".7" d="M13.8358494,12.0374999 C15.3520064,13.0913577 15.98148,13.6486357 15.98148,14.0208333 L15.98148,16.0041667 L15.2731466,16.0041667 L15.2731466,14.0208333 C15.2731466,14.0854466 15.2501701,14.049833 15.1937645,13.990607 C15.0885683,13.8801511 14.9224589,13.7334212 14.6977338,13.553641 C14.3660639,13.2883051 13.9124298,12.9553463 13.3376347,12.5555009 C13.2793571,12.6180249 13.2145722,12.6732438 13.144503,12.7198126 C13.3222134,12.8407565 13.5089288,12.9967018 13.6583333,13.1708333 C14.1148838,13.7029444 14.3666667,14.3991795 14.3666667,14.7291667 C14.3666667,15.7071709 13.5738376,16.0041668 12.5958333,16.0041668 C11.6178291,16.0041668 10.825,15.7071709 10.825,14.7291667 C10.825,14.4785629 11.0939594,13.7242924 11.5333333,13.1708333 C11.6808855,12.9849687 11.857268,12.8266811 12.028602,12.7071883 C11.9416054,12.6466529 11.8631523,12.5726038 11.7956809,12.487723 C11.1743874,12.9178567 10.6881494,13.2734517 10.3379128,13.553641 C10.1131877,13.7334212 9.94707835,13.8801511 9.84188218,13.990607 C9.7854765,14.049833 9.7625,14.0854466 9.7625,14.0208333 L9.7625,16.0041667 L9.05416667,16.0041667 L9.05416667,14.0208333 C9.05416667,13.6486357 9.68364026,13.0913577 11.1997973,12.0374999 L9.19583337,12.0374999 L9.19583337,11.3291665 L11.3563702,11.3291665 C10.9507894,11.1830851 10.5922229,10.9753926 10.2717159,10.7061961 C9.80834802,10.3170096 9.42453007,9.79927064 9.09320204,9.15330291 L9.72346463,8.83003031 C10.2778704,9.91091745 10.9608156,10.5378144 11.9676346,10.7716848 L11.9663815,10.7770796 C11.9908551,10.7572518 12.0161296,10.7385507 12.0421417,10.721046 C11.5348824,10.5054495 11.1791667,10.002599 11.1791667,9.41666667 C11.1791667,8.63426327 11.8134299,8 12.5958333,8 C13.3782367,8 14.0125,8.63426327 14.0125,9.41666667 C14.0125,10.002599 13.6567843,10.5054495 13.149525,10.721046 C13.1527249,10.7231994 13.1559137,10.7253709 13.1590912,10.7275603 C14.0737615,10.4644199 14.7105931,9.84893176 15.2332053,8.83003031 L15.8634679,9.15330291 C15.3029636,10.2460801 14.5922428,10.9718901 13.6002997,11.3291665 L15.9958336,11.3291665 L15.9958336,12.0374999 L13.8358494,12.0374999 Z"/>
    <path fill="#62B543" fill-opacity=".7" d="M7,12.5 C7,14.433 5.433,16 3.5,16 C1.567,16 0,14.433 0,12.5 C0,10.567 1.567,9 3.5,9 C5.433,9 7,10.567 7,12.5"/>
    <path fill="#231F20" fill-opacity=".7" d="M3.50858455,15 C1.99615361,15 1.00167847,13.9226519 1.00167847,12.5138122 L1.00167847,12.5 C1.00167847,11.1464088 2.03759008,10 3.4947724,10 C4.33731383,10 4.85526963,10.2348066 5.3525072,10.6560773 L4.81383317,11.2983425 C4.44090499,10.9875691 4.07488289,10.7872928 3.46024201,10.7872928 C2.56935803,10.7872928 1.89256245,11.5607735 1.89256245,12.4861878 L1.89256245,12.5 C1.89256245,13.4944751 2.5486398,14.2265193 3.53620886,14.2265193 C3.99200996,14.2265193 4.40637461,14.0814917 4.70333593,13.8604972 L4.70333593,12.9627072 L3.46714809,12.9627072 L3.46714809,12.2168508 L5.52515914,12.2168508 L5.52515914,14.2472376 C5.0486398,14.6546961 4.36493814,15 3.50858455,15 Z"/>
  </g>
</svg>

<svg xmlns="http://www.w3.org/2000/svg" width="16" height="16" viewBox="0 0 16 16"><rect id="frame" width="16" height="16" fill="none"/><g fill="none" fill-rule="evenodd"><path fill="#9AA7B0" fill-opacity=".8" d="M1 8.758V2.05c0-.013.005-.026.051-.051H4.98a2.8 2.8 0 0 1 1.717.711L7.985 4H15v3.5H8.5V13h-.527A4.5 4.5 0 0 0 1 8.758z"/><path fill="#231F20" fill-opacity=".7" d="M13.836 12.037c1.516 1.054 2.145 1.612 2.145 1.984v1.983h-.708v-1.983c0 .064-.023.029-.08-.03a5.274 5.274 0 0 0-.495-.437 26.402 26.402 0 0 0-1.36-.998 1.087 1.087 0 0 1-.193.164c.177.12.364.277.513.45.457.533.709 1.23.709 1.56 0 .977-.793 1.274-1.771 1.274-.978 0-1.771-.297-1.771-1.275 0-.25.269-1.005.708-1.558a2.38 2.38 0 0 1 .496-.464 1.103 1.103 0 0 1-.233-.22c-.622.43-1.108.786-1.458 1.067-.225.18-.39.326-.496.437-.057.059-.08.094-.08.03v1.983h-.708v-1.983c0-.372.63-.93 2.146-1.984H9.196v-.708h2.16a3.525 3.525 0 0 1-1.084-.623c-.464-.389-.847-.907-1.179-1.553l.63-.323c.555 1.08 1.238 1.708 2.245 1.942l-.002.005c.025-.02.05-.038.076-.056a1.417 1.417 0 1 1 1.108 0l.01.007c.914-.264 1.55-.88 2.073-1.898l.63.323c-.56 1.093-1.27 1.819-2.263 2.176h2.396v.708h-2.16z"/><path fill="#62B543" fill-opacity=".7" d="M7 12.5a3.5 3.5 0 1 1-7 0 3.5 3.5 0 0 1 7 0"/><path fill="#231F20" fill-opacity=".7" d="M3.509 15c-1.513 0-2.507-1.077-2.507-2.486V12.5c0-1.354 1.036-2.5 2.493-2.5.842 0 1.36.235 1.858.656l-.54.642c-.372-.31-.738-.51-1.353-.51-.89 0-1.567.773-1.567 1.698v.014c0 .994.656 1.727 1.643 1.727.456 0 .87-.146 1.167-.367v-.897H3.467v-.746h2.058v2.03A3.082 3.082 0 0 1 3.51 15z"/></g></svg>
